X:1
T:Title
%%score { ( 1 3 ) | 2 }
L:1/8
Q:1/4=100
M:4/4
K:Eb
V:1 treble nm="Grand Piano"
V:3 treble 
V:2 bass 
V:1
 G2 G>[FA] [GB]2 [GB]>[GB] | [Ge]2 [Bd]>[Ac] [GB]4 | [EGB]2 [EG]>[FA] [EGB]2 [B,FA]>[B,DF] | %3
w: Frank~M.~Davis * * * * *|||
 [B,EG]6 z2 | [B,EG]2 [B,EG]>[B,FA] [GB]2 [GB]>[GB] | [Ge]2 [Bd]>[Ac] [GB]4 | %6
w: |||
 [EGB]2 [EG]>[FA] [EGB]2 [DFA]>[A,DF] | [G,E]6 z2 | [DF]2 [DF]>[EG] [FA]4 | [EG]2 [EG]>[FA] [GB]4 | %10
w: ||||
 B2 =A>A B2 d>c | B4 A4 | G2 G>[FA] [GB]2 [GB]>[GB] | [Ge]2 [Bd]>[Ac] [GB]4 | %14
w: ||||
 [EGB]2 [EG]>[FA] [EGB]2 [DFA]>[A,DF] |[M:8/4] [G,E]8 z8 |] %16
w: ||
V:2
 [E,B,E]2 [E,B,E]>[E,B,] [E,E]2 [E,E]>[E,E] | [E,B,]2 [E,E]>[E,E] [E,E]4 | B,2 B,>B, B,,2 B,,>B,, | %3
 E,6 z2 | E,2 E,>E, [E,E]2 [E,E]>[E,E] | [E,B,]2 [E,E]>[E,E] [E,E]4 | B,2 B,>B, B,,2 B,,>B,, | %7
 E,6 z2 | [B,,B,]2 [B,,B,]>[B,,B,] [B,,B,]4 | [E,B,]2 [E,B,]>[E,B,] [E,E]4 | %10
 [F,DF]2 [F,CE]>[F,CE] [F,B,D]2 [F,B,F]>[G,=B,E] | [B,,B,]8 | %12
 [E,B,E]2 [E,B,E]>[E,B,] [E,E]2 [E,E]>[E,E] | [E,B,]2 [E,E]>[E,E] [E,E]4 | B,2 B,>B, B,,2 B,,>B,, | %15
[M:8/4] E,8 z8 |] %16
V:3
 x8 | x8 | x8 | x8 | x8 | x8 | x8 | x8 | x8 | x8 | x8 | D8 | x8 | x8 | x8 |[M:8/4] x16 |] %16

